!!!!SEGMENT: pl-wtm--r-601-m_moniuszko-stanislaw--z-baletu-monte-christo.krn
!!!cenid: 18xx:2982
!!!COM: Moniuszko, Stanisław
!!!COM-rismID: pe30008351
!!!CDT: 1819/05/05-1872/06/04
!!!CNT: Polish
!!!OTL: Z baletu Monte Christo
!!!PDT: 1866
!!!AGN: Secular
!!!SMS-siglum: PL-Wtm
!!!SMS-shelfmark: R 601/M
!!!SMS-shelfwork: W
!!!SMS-variant:
!!!SMS-altvar:
!!!NIFC-rismSourceID: 1001097053
!!!NIFC-rismChildID: 1001097053
!!!NIFC-islandoraID:
!!!URL-pdf-islandora:
!!!URL-scan:
!!!ONB-nifc: UWAGA: W źródle nie został/y wskazany/e instrument/y na który/e kompozycja
!!!AIN: 1 empty
!!!key:
**kern	**kern	**dynam
*part1	*part1	*part1
*staff2	*staff1	*
*Iempty	*Iempty	*
*	*I"[brak nazwy]	*
*clefG2	*clefG2	*
*k[b-e-]	*k[b-e-]	*
*B-:	*B-:	*
*M6/8	*M6/8	*
*all\right	*all\right	*
=1	=1	=1
!	!LO:TX:b:B:t=Trombe:color=dodgerblue	!
!	!LO:TX:a:i:t=Wstęp.	!LO:DY:rj
8d/L	8d/L	f
16d/L	16d/L	.
16d/J	16d/J	.
8d/J	8d/J	.
*rep	*	*
!	!LO:TX:a:B:t=X:color=dodgerblue	!
8d/L	8d/L	.
16d/L	16d/L	.
16d/J	16d/J	.
8d/J	8d/J	.
*Xrep	*	*
=2	=2	=2
8d/L	4.d^/	.
16d/L	.	.
16d/J	.	.
8d/J	.	.
!	!LO:TX:a:t=P:problem=w źródle decymola szesnastkowa	!
4d/	(80%3d/LL	.
!	!LO:TX:a:B:t=67h:color=dodgerblue	!
.	80%3en/	.
.	80%3f#X/	.
.	80%3g/	.
.	80%3a/	.
.	80%3b-/	.
.	80%3cc/	.
8r	.	.
.	80%3dd/	.
.	80%3een/	.
.	80%3ff#X/JJ)	ff
=3||	=3||	=3||
*	*rscale:1	*
8gg 8b- 8d 8G/	8gg\	.
16ddLL 16d^/	16ggLL 16b-\	.
16ddJ 16d/	16ggJ 16b-\	.
8ddJ 8d/	8ggJ 8b-\	.
8ddL 8d^/	8ggL 8b-^\	.
8dd 8d^/	8dd^\	.
8b-J 8g^/	8eenJ 8cc^\	.
=4	=4	=4
8anL 8f^/	8ffL 8a^\	.
8a 8f^/	8cc^\	.
8a-X^/J	8dd^\J	.
8g^/	8ee-X^\	.
8r	8r	.
8r	8r	.
!!LO:LB:g=original
=5	=5	=5
!	!	!LO:DY:rj
8ee- 8g/	8gg|\	p
(16ee-\LL	(16gg\LL	.
16dd\J)	16ff\J	.
8cc'\J	8ee-\J)	.
8b- 8d'/	8dd|\	.
16b-/LL	(16dd\LL	.
16a/J	16cc\J	.
8g/J	8b-\J)	.
=6	=6	=6
(16f#X/LL	16aLL 16d/	.
16g/J)	16b-/J	.
8a/	8cc/	.
8aJ 8f#'/	8ddJ 8d'/	.
4g/	(4b-\	<
8b-\	8gg\)	[
=7	=7	=7
!	!	!LO:DY:rj
8ffL 8dd\	8bb-L 8b-\	ff
16ffL 16dd\	16bb-L 16b-\	.
16ffJ 16dd\	16bb-J 16b-\	.
8ffJ 8dd\	8bb-J 8b-\	.
8ffL 8dd\	8bb-L 8b-\	.
8ff 8dd^\	8ff^\	.
8eenJ 8dd^\	8gg^\J	.
=8	=8	=8
8eenL 8cc#X^\	8aaL 8a^\	.
8cc#^\	8een 8a^\	.
8ccn^\J	8ff#XJ 8a 8d\	.
8b- 8d 8G/	8gg 8b- 8d/	.
8r	8r	.
8r	8r	.
.	.	p
=9	=9	=9
8g#X/	8ff 8dd|\	.
8r	(16ff\LL	.
.	16een\J)	.
8bn 8g#/	8dd|\J	.
!!LO:LB:g=original
8a/	8aa 8a\	.
8r	16gg\LL	.
.	16ff\	.
8d/	16een\	.
.	16dd\JJ	.
=10	=10	=10
8dL 8G/	16cc/LL	.
.	16b-X/	.
8A/	16a/	.
.	16g/	.
8A/J	16f/	.
.	16en/JJ	.
8d/	8d/	.
8r	8r	p
8r	16f/LL	.
!	!LO:TX:t=P:problem=dopisana niebieska kreska taktowa	!
.	16g/JJ	.
=11	=11	=11
8A/	(8f/L	.
8r	8en/)	.
8A/	8e-X/J	.
*rep	*	*
8A/	4c^/	.
8r	.	.
8A/	8c#X/	.
*Xrep	*	*
=12	=12	=12
8B-/	(8d^/L	.
8r	8f/)	.
8f 8B-/	8dd/J	.
4en 4G/	4cc\	.
8e 8c/	8b-X\	.
=13	=13	=13
8f/	(8a^\L	.
8r	8cc\)	.
8a 8f/	8aa\J	.
8b- 8f/	4gg\	.
8r	.	.
8a 8f/	8ff\	.
=14	=14	=14
.	4qff/	.
8b- 8g/	(8een\L	.
8r	8dd\)	.
8b- 8g/	8ee|\J	.
8a 8f/	16ff\LL	.
.	16gg\	.
8r	16ff\	.
.	16ee-X\	.
8f/	16cc\	.
.	16a\JJ	.
!!LO:LB:g=original
=15	=15	=15
8A/	8f/L	.
8r	8a/	.
8A/	8g/J	.
*rep	*	*
8A/	4f/	.
8r	.	.
8A/	8e-X/	.
*Xrep	*	*
=16	=16	=16
8B-/	(16d/LL	.
.	16e-/J)	.
8r	8f/	.
8d/	8dd/J	.
8en/	(4cc^\	.
8r	.	.
8g/	8b-\)	.
=17	=17	=17
8f/	(16a\LL	.
.	16b-\J)	.
8r	8cc\	.
8cc\	8aa\J	.
8bn\	4gg\	.
8r	.	.
8dd\	8ff\	.
=18	=18	=18
.	8qff/	.
8b-XL 8g'/	8een'\L	.
8b- 8g'/	8dd'\	.
8b-J 8g'/	8ee'\J	.
8a 8f/	8ff\	.
8r	8r	.
!	!	!LO:DY:rj
8dd 8f 8B-/	(16ff\LL	ff
!	!LO:TX:t=P:problem=niebieska kreska taktowa	!
.	16bb-\JJ)	.
=19	=19	=19
8dd 8f 8B-/	4bb-\	.
8r	.	.
8dd 8f 8B-/	16bb-\LL	.
.	16ccc\JJ	.
*rep	*	*
8dd 8f 8B-/	4ccc^\	.
8r	.	.
8dd 8f 8B-/	8bb-\	.
*Xrep	*	*
=20	=20	=20
.	8qbb-/	.
8ee- 8f/	(8aa\L	.
8r	8gg\)	.
8ee- 8f/	8aa'\J	.
*rep	*	*
8ee- 8f/	8ff\	.
8r	8r	.
8ee- 8f/	(16ff\LL	.
.	16ccc\JJ)	.
*Xrep	*	*
!!LO:LB:g=original
=21	=21	=21
*rep	*	*
8ee- 8f/	4ccc\	.
8r	.	.
8ee- 8f/	(16ccc\LL	.
.	16eee-\JJ)	.
8ee- 8f/	4eee-^\	.
8r	.	.
8ee- 8f/	8aa\	.
*Xrep	*	*
=22	=22	=22
8dd 8g/	16bb-\LL	.
.	16aa\	.
8r	16bb-\	.
.	16ccc\	.
8dd 8g/	16ddd\	.
.	16eee-\JJ	.
*rep	*	*
8dd 8g/	8fff\	.
8r	8r	.
8dd 8g/	16eeen\LL	.
.	16fff\JJ	.
*Xrep	*	*
=23	=23	=23
4b-^/	4ggg^\	.
8an/	16fff\LL	.
.	16eee-X\JJ	.
8b-/	8ddd\	.
8r	8r	.
8b-/	16ccc\LL	.
.	16ddd\JJ	.
=24	=24	=24
4ff 4a^/	4eee-^\	.
8ff 8a/	16ddd\LL	.
.	16ccc\JJ	.
8b-/	8bb-\	.
8ryy	8r	.
16dd\LL	16bb-\LL	.
16cc\JJ	16ccc\JJ	.
=25	=25	=25
8b-|\L	8ddd|\L	.
8cc|\	8bb-|\	.
8dd|\J	8gg|\J	.
8dd\	8ff\	.
8r	16dd\LL	.
.	16ff\	.
8dd 8f\	16bb-\	.
.	16ddd\JJ	.
!!LO:LB:g=original
=26	=26	=26
8dd 8f\	8fff\	.
8r	8r	.
8dd 8f\	16bb-\LL	.
.	16ccc\JJ	.
8dd 8f\	8ddd\	.
8r	8r	.
8ee- 8f\	8ccc\	.
=27	=27	=27
!	!LO:TX:b:i:t=Zakończenie.	!
8ddL 8f 8B-/	8bb-\L	.
16ddL 16f/	16bb-\L	.
16ddJ 16f/	16bb-\J	.
8ddJ 8f/	8bb-\J	.
*tremolo	*	*
8ddL 8f/	8bb-\L	.
8dd 8f/	8ff\	.
8ddJ 8f/	8dd\J	.
*Xtremolo	*	*
=28	=28	=28
8b- 8d/	8b-\	.
8r	8r	.
8r	8r	.
8ff 8b- 8d/	8bb- 8b- 8d\	.
8ryy	8r	.
!LO:TX:t=P:problem=nieczytelny napis "Od p. Adama Mi... 17/XI 98r.	!	!
8ryy	8r	.
==	==	==
*-	*-	*-
!!!system-decoration: {(s1,s2)}
!!!RDF**kern: > = above
!!!RDF**kern: < = below
!!!RDF**kern: | = vertical stroke
!!!ENC: Marcin Jachim
!!!END: 2021-08-17
!!!ENC: Andrzej Kubiczek
!!!END: 2021-09-26
!!!YEC: Copyright 2022 Narodowy Instytut Fryderyka Chopina (https://polishscores.org)
!!!YEM: License CC-BY-4.0 (https://creativecommons.org/licenses/by/4.0)
